X: 33
T:Clare's Dragoons
R:March
Z:added by Alf 
M:2/4
L:1/8
K:A
C2 E2 | E2 FG | A2 AB | AG FE | C2 E2 | E2 c2 | dc BA | F3D | C2 E2 | E2 FG | A2 B2 |
c3d | e2 E2 | F2 d2 | c3B | A3B | c2 ec | B2 cB | A3B | c3B | c2 ec | B2 c2 |
dc BA | F3B | c2 ec | B2 cB | A3B | c3d | e2 E2 | F2 d2 | c3B | A4 | ]
